img/footer/contacts-logotype.svg

<svg width="72" height="42" viewBox="0 0 72 42" fill="none" xmlns="http://www.w3.org/2000/svg">
<path d="M20.0215 18.1641L19.3535 22.4531C19.1426 23.8828 18.7793 25.2598 18.2637 26.584C17.7598 27.8965 17.0859 29.0684 16.2422 30.0996C15.4102 31.1309 14.3906 31.9395 13.1836 32.5254C11.9766 33.1113 10.5762 33.3867 8.98242 33.3516C7.45898 33.3164 6.1875 32.9824 5.16797 32.3496C4.16016 31.7168 3.375 30.8848 2.8125 29.8535C2.26172 28.8105 1.9043 27.6504 1.74023 26.373C1.58789 25.0957 1.59375 23.7949 1.75781 22.4707L2.4082 18.1816C2.63086 16.752 2.99414 15.3691 3.49805 14.0332C4.00195 12.6973 4.67578 11.4961 5.51953 10.4297C6.375 9.36328 7.41211 8.52539 8.63086 7.91602C9.84961 7.29492 11.2617 7.00781 12.8672 7.05469C14.4141 7.08984 15.6855 7.43555 16.6816 8.0918C17.6895 8.74805 18.4688 9.61523 19.0195 10.6934C19.5703 11.7598 19.916 12.9434 20.0566 14.2441C20.1973 15.5332 20.1855 16.8398 20.0215 18.1641ZM14.8184 22.4707L15.4512 18.0938C15.5449 17.4492 15.6035 16.7344 15.627 15.9492C15.6621 15.1523 15.6035 14.3848 15.4512 13.6465C15.3105 12.9082 15.0117 12.293 14.5547 11.8008C14.1094 11.3086 13.4355 11.0449 12.5332 11.0098C11.5605 10.9629 10.7402 11.1562 10.0723 11.5898C9.41602 12.0234 8.87695 12.6035 8.45508 13.3301C8.04492 14.0566 7.72266 14.8418 7.48828 15.6855C7.26562 16.5293 7.0957 17.3438 6.97852 18.1289L6.3457 22.4883C6.26367 23.1328 6.20508 23.8477 6.16992 24.6328C6.14648 25.418 6.2168 26.168 6.38086 26.8828C6.54492 27.5859 6.84961 28.1777 7.29492 28.6582C7.75195 29.127 8.42578 29.3789 9.31641 29.4141C10.2773 29.4609 11.0859 29.2793 11.7422 28.8691C12.3984 28.4473 12.9316 27.8906 13.3418 27.1992C13.752 26.4961 14.0684 25.7285 14.291 24.8965C14.5254 24.0645 14.7012 23.2559 14.8184 22.4707Z" fill="#EEEDDE"/>
<path d="M27.4766 18.9219V29H24.3828V16.3203H27.3008L27.4766 18.9219ZM27.0195 22.2031H26.0703C26.0703 21.3203 26.1758 20.5078 26.3867 19.7656C26.6055 19.0234 26.9258 18.3789 27.3477 17.832C27.7695 17.2773 28.2891 16.8477 28.9062 16.543C29.5312 16.2383 30.2539 16.0859 31.0742 16.0859C31.6445 16.0859 32.168 16.1719 32.6445 16.3438C33.1211 16.5078 33.5312 16.7695 33.875 17.1289C34.2266 17.4805 34.4961 17.9414 34.6836 18.5117C34.8711 19.0742 34.9648 19.75 34.9648 20.5391V29H31.8711V20.8555C31.8711 20.2617 31.7852 19.7969 31.6133 19.4609C31.4492 19.125 31.2109 18.8906 30.8984 18.7578C30.5859 18.6172 30.2109 18.5469 29.7734 18.5469C29.2891 18.5469 28.8711 18.6445 28.5195 18.8398C28.1758 19.0273 27.8906 19.2891 27.6641 19.625C27.4453 19.9609 27.2812 20.3477 27.1719 20.7852C27.0703 21.2227 27.0195 21.6953 27.0195 22.2031ZM34.7305 21.6289L33.4531 21.8633C33.4609 21.0664 33.5703 20.3203 33.7812 19.625C33.9922 18.9219 34.3008 18.3086 34.707 17.7852C35.1211 17.2539 35.6328 16.8398 36.2422 16.543C36.8594 16.2383 37.5703 16.0859 38.375 16.0859C39 16.0859 39.5625 16.1758 40.0625 16.3555C40.5703 16.5273 41.0039 16.8047 41.3633 17.1875C41.7227 17.5625 41.9961 18.0508 42.1836 18.6523C42.3789 19.2539 42.4766 19.9883 42.4766 20.8555V29H39.3594V20.8438C39.3594 20.2266 39.2734 19.7539 39.1016 19.4258C38.9375 19.0977 38.6992 18.8711 38.3867 18.7461C38.0742 18.6133 37.707 18.5469 37.2852 18.5469C36.8555 18.5469 36.4805 18.6289 36.1602 18.793C35.8477 18.9492 35.582 19.168 35.3633 19.4492C35.1523 19.7305 34.9922 20.0586 34.8828 20.4336C34.7812 20.8008 34.7305 21.1992 34.7305 21.6289ZM52.2383 26.3047V20.457C52.2383 20.0273 52.1641 19.6562 52.0156 19.3438C51.8672 19.0312 51.6406 18.7891 51.3359 18.6172C51.0312 18.4453 50.6445 18.3594 50.1758 18.3594C49.7617 18.3594 49.3984 18.4297 49.0859 18.5703C48.7812 18.7109 48.5469 18.9102 48.3828 19.168C48.2188 19.418 48.1367 19.707 48.1367 20.0352H45.0312C45.0312 19.5117 45.1562 19.0156 45.4062 18.5469C45.6562 18.0703 46.0117 17.6484 46.4727 17.2812C46.9414 16.9062 47.5 16.6133 48.1484 16.4023C48.8047 16.1914 49.5391 16.0859 50.3516 16.0859C51.3125 16.0859 52.168 16.25 52.918 16.5781C53.6758 16.8984 54.2695 17.3828 54.6992 18.0312C55.1367 18.6797 55.3555 19.4961 55.3555 20.4805V26.0117C55.3555 26.6445 55.3945 27.1875 55.4727 27.6406C55.5586 28.0859 55.6836 28.4727 55.8477 28.8008V29H52.6953C52.5469 28.6797 52.4336 28.2734 52.3555 27.7812C52.2773 27.2812 52.2383 26.7891 52.2383 26.3047ZM52.6719 21.2773L52.6953 23.1172H50.7383C50.2539 23.1172 49.8281 23.168 49.4609 23.2695C49.0938 23.3633 48.793 23.5039 48.5586 23.6914C48.3242 23.8711 48.1484 24.0898 48.0312 24.3477C47.9141 24.5977 47.8555 24.8828 47.8555 25.2031C47.8555 25.5156 47.9258 25.7969 48.0664 26.0469C48.2148 26.2969 48.4258 26.4961 48.6992 26.6445C48.9805 26.7852 49.3086 26.8555 49.6836 26.8555C50.2305 26.8555 50.707 26.7461 51.1133 26.5273C51.5195 26.3008 51.8359 26.0273 52.0625 25.707C52.2891 25.3867 52.4102 25.082 52.4258 24.793L53.3164 26.1289C53.207 26.4492 53.043 26.7891 52.8242 27.1484C52.6055 27.5078 52.3242 27.8438 51.9805 28.1562C51.6367 28.4688 51.2227 28.7266 50.7383 28.9297C50.2539 29.1328 49.6914 29.2344 49.0508 29.2344C48.2305 29.2344 47.4961 29.0703 46.8477 28.7422C46.1992 28.4141 45.6875 27.9648 45.3125 27.3945C44.9375 26.8242 44.75 26.1758 44.75 25.4492C44.75 24.7773 44.875 24.1836 45.125 23.668C45.375 23.1523 45.7461 22.7188 46.2383 22.3672C46.7305 22.0078 47.3398 21.7383 48.0664 21.5586C48.8008 21.3711 49.6406 21.2773 50.5859 21.2773H52.6719ZM61.1797 11V29H58.0742V11H61.1797ZM60.6875 22.2031H59.7734C59.7734 21.3203 59.8906 20.5078 60.125 19.7656C60.3594 19.0234 60.6914 18.3789 61.1211 17.832C61.5508 17.2773 62.0625 16.8477 62.6562 16.543C63.2578 16.2383 63.9219 16.0859 64.6484 16.0859C65.2734 16.0859 65.8398 16.1758 66.3477 16.3555C66.8633 16.5273 67.3047 16.8047 67.6719 17.1875C68.0391 17.5703 68.3203 18.0703 68.5156 18.6875C68.7188 19.2969 68.8203 20.0391 68.8203 20.9141V29H65.7031V20.8906C65.7031 20.3047 65.6172 19.8438 65.4453 19.5078C65.2734 19.1641 65.0273 18.918 64.707 18.7695C64.3945 18.6211 64.0078 18.5469 63.5469 18.5469C63.0469 18.5469 62.6172 18.6445 62.2578 18.8398C61.8984 19.0273 61.6016 19.2891 61.3672 19.625C61.1406 19.9609 60.9688 20.3477 60.8516 20.7852C60.7422 21.2227 60.6875 21.6953 60.6875 22.2031Z" fill="#EEEDDE"/>
</svg>

<svg xmlns="http://www.w3.org/2000/svg" fill="none" viewBox="0 0 72 42"><path fill="#EEEDDE" d="m20.021 18.164-.668 4.29a18.982 18.982 0 0 1-1.09 4.13 12.687 12.687 0 0 1-2.02 3.516 8.837 8.837 0 0 1-3.06 2.425c-1.206.586-2.607.862-4.2.827-1.524-.036-2.796-.37-3.815-1.002a6.684 6.684 0 0 1-2.356-2.497c-.55-1.043-.908-2.203-1.072-3.48a16.112 16.112 0 0 1 .018-3.902l.65-4.29c.223-1.429.586-2.812 1.09-4.148A13.366 13.366 0 0 1 5.52 10.43a9.244 9.244 0 0 1 3.11-2.514c1.22-.621 2.632-.908 4.237-.861 1.547.035 2.818.38 3.815 1.037a6.672 6.672 0 0 1 2.338 2.601c.55 1.067.896 2.25 1.037 3.551.14 1.29.129 2.596-.035 3.92zm-5.203 4.307.633-4.377c.094-.645.152-1.36.176-2.145a9.326 9.326 0 0 0-.176-2.303c-.14-.738-.44-1.353-.896-1.845-.446-.492-1.12-.756-2.022-.791-.973-.047-1.793.146-2.46.58a5.137 5.137 0 0 0-1.618 1.74 10.47 10.47 0 0 0-.967 2.355 22.758 22.758 0 0 0-.51 2.444l-.632 4.36c-.082.644-.14 1.359-.176 2.144a8.842 8.842 0 0 0 .21 2.25c.165.703.47 1.295.915 1.775.457.469 1.13.72 2.021.756.961.047 1.77-.135 2.426-.545a4.963 4.963 0 0 0 1.6-1.67 9.33 9.33 0 0 0 .949-2.303c.234-.832.41-1.64.527-2.425zM27.477 18.922V29h-3.094V16.32H27.3l.176 2.602zm-.457 3.281h-.95c0-.883.106-1.695.317-2.437.218-.743.539-1.387.96-1.934a4.359 4.359 0 0 1 1.56-1.289c.624-.305 1.347-.457 2.167-.457.57 0 1.094.086 1.57.258.477.164.887.425 1.231.785.352.351.621.812.809 1.383.187.562.28 1.238.28 2.027V29h-3.093v-8.145c0-.593-.086-1.058-.258-1.394a1.392 1.392 0 0 0-.715-.703c-.312-.14-.687-.211-1.125-.211-.484 0-.902.098-1.253.293-.344.187-.63.45-.856.785a3.792 3.792 0 0 0-.492 1.16 6.26 6.26 0 0 0-.152 1.418zm7.71-.574-1.277.234a7.945 7.945 0 0 1 .328-2.238c.211-.703.52-1.316.926-1.84a4.317 4.317 0 0 1 1.535-1.242c.617-.305 1.328-.457 2.133-.457.625 0 1.188.09 1.688.27.507.171.94.449 1.3.831.36.375.633.864.82 1.465.196.602.294 1.336.294 2.203V29h-3.118v-8.156c0-.617-.086-1.09-.257-1.418a1.346 1.346 0 0 0-.715-.68c-.313-.133-.68-.2-1.102-.2-.43 0-.804.083-1.125.247a2.304 2.304 0 0 0-.797.656c-.21.281-.37.61-.48.985a4.47 4.47 0 0 0-.153 1.195zm17.508 4.676v-5.848c0-.43-.074-.8-.222-1.113a1.609 1.609 0 0 0-.68-.727c-.305-.172-.691-.258-1.16-.258-.414 0-.778.07-1.09.211-.305.14-.54.34-.703.598-.164.25-.246.539-.246.867H45.03c0-.523.125-1.02.375-1.488a3.98 3.98 0 0 1 1.067-1.266 5.256 5.256 0 0 1 1.675-.879c.657-.21 1.391-.316 2.204-.316.96 0 1.816.164 2.566.492.758.32 1.352.805 1.781 1.453.438.649.657 1.465.657 2.45v5.53c0 .634.038 1.177.117 1.63.086.445.21.832.375 1.16V29h-3.153c-.148-.32-.261-.727-.34-1.219a9.545 9.545 0 0 1-.117-1.476zm.434-5.028.023 1.84h-1.957c-.484 0-.91.051-1.277.152-.367.094-.668.235-.902.422a1.71 1.71 0 0 0-.528.657c-.117.25-.175.535-.175.855 0 .313.07.594.21.844.149.25.36.45.633.598.282.14.61.21.985.21.547 0 1.023-.109 1.43-.328.406-.226.722-.5.949-.82.226-.32.347-.625.363-.914l.89 1.336c-.109.32-.273.66-.492 1.02-.218.359-.5.695-.843 1.007-.344.313-.758.57-1.243.774-.484.203-1.047.304-1.687.304-.82 0-1.555-.164-2.203-.492a3.905 3.905 0 0 1-1.535-1.348c-.376-.57-.563-1.218-.563-1.945 0-.672.125-1.265.375-1.781s.621-.95 1.113-1.3c.492-.36 1.102-.63 1.828-.81.735-.187 1.575-.28 2.52-.28h2.086zM61.18 11v18h-3.106V11h3.106zm-.492 11.203h-.915c0-.883.118-1.695.352-2.437a6.04 6.04 0 0 1 .996-1.934c.43-.555.941-.984 1.535-1.289a4.345 4.345 0 0 1 1.992-.457c.625 0 1.192.09 1.7.27.515.171.957.449 1.324.831.367.383.648.883.844 1.5.203.61.304 1.352.304 2.227V29h-3.117v-8.11c0-.585-.086-1.046-.258-1.382a1.54 1.54 0 0 0-.738-.738c-.313-.149-.7-.223-1.16-.223-.5 0-.93.098-1.29.293-.359.187-.655.45-.89.785a3.828 3.828 0 0 0-.515 1.16c-.11.438-.164.91-.164 1.418z"/></svg>
